lib/flags/s/BQ-SA.svg

<svg xmlns="http://www.w3.org/2000/svg" fill="none" viewBox="0 0 16 12"><mask id="BQ-SA_svg__a" width="16" height="12" x="0" y="0" mask-type="alpha" maskUnits="userSpaceOnUse"><path fill="#fff" d="M0 0H16V12H0z"/></mask><g fill-rule="evenodd" clip-rule="evenodd" mask="url(#BQ-SA_svg__a)"><path fill="#fff" d="M0 0H16V12H0V0Z"/><path fill="#F00000" d="M0 5.832V0H8L0 5.832zM16 5.832V0H8L16 5.832z"/><path fill="#00268D" d="M0 5.832V12H8L0 5.832zM16 5.83197V12.168L8 12 16 5.83197z"/><path fill="#FEDA00" d="M7.85699 7.12813L6.09827 8.38164L6.74363 6.31101L5 5.0435H7.17229L7.85699 3L8.58274 5.0435H10.6959L8.96743 6.31101L9.62444 8.38164L7.85699 7.12813Z"/></g></svg>

<svg xmlns="http://www.w3.org/2000/svg" fill="none" viewBox="0 0 16 12"><mask id="BQ-SA_svg__a" width="16" height="12" x="0" y="0" maskUnits="userSpaceOnUse"><path fill="#fff" d="M0 0h16v12H0z"/></mask><g fill-rule="evenodd" clip-rule="evenodd" mask="url(#BQ-SA_svg__a)"><path fill="#fff" d="M0 0h16v12H0V0z"/><path fill="#F00000" d="M0 5.832V0h8L0 5.832zm16 0V0H8l8 5.832z"/><path fill="#00268D" d="M0 5.832V12h8L0 5.832zm16 0v6.336L8 12l8-6.168z"/><path fill="#FEDA00" d="M7.857 7.128L6.098 8.382l.646-2.071L5 5.043h2.172L7.857 3l.726 2.043h2.113L8.967 6.311l.657 2.07-1.767-1.253z"/></g></svg>
